X:1
T:Sally's reel
%%composerspace
C:from the box playing of Sally Sloane
%%musicspace
L:1/8
M:4/4
K:G
[|d2-dA dBAF|G2D2 G3A|B2>G2 B2d2|A4-A4|
|d2d2 dBAF|G2D2 G3A|B3d A3B |G4-G2 EF|]
[|GFGA B2G2|AGFE D2EF|GFGA B2G2|AGFE D4|
|d2Bc d2e2|d2Bc d2e2|d2g2 B3A|G4-G4|]